X: 2204
T: Holyrood House
P: Holyrood
C:Robert R. Gourlay
R:Reel (4x48)
B:RSCDS 22-4
Z:Anselm Lingnau <anselm@strathspey.org>
M:6/8
L:1/8
K:G
B|"G"ded dBG|"D7"c2d "G"BAG|"G/B"DGG "A7"GFG|"D"ABA "D7"FED|
  "G"ded dBG|"D7"c2d "G"BAG|"G/B"DGG "A7"GFG|"G"BGG G2||
B|"G"dBG G2g|"C"ecc c2d|"A7"e^cA Aag|"D"fdd "D7"def|
  "G/B"gfe dcB|"C"edc "Am"BAG|"G"DGG "D7"AGA|"G"BGG G2|]
%%center Book22/2204-Holyrood_House-AL.abc

%%sep 1 1 500
%%sep 1 1 500
